packages/core/src/svgs/tokens/mono/QUAD.svg

<svg width="24" height="24" viewBox="0 0 24 24" fill="none" xmlns="http://www.w3.org/2000/svg">
<path fill-rule="evenodd" clip-rule="evenodd" d="M20 4H4V20H18.5866L15.2534 16.6668H7.33334V7.33334H16.6668V15.2534L20 18.5866V4ZM2 2V22H22V2H2ZM9.33339 9.33339H14.6666V14.6666H9.33339V9.33339Z" fill="white"/>
</svg>

<svg xmlns="http://www.w3.org/2000/svg" width="24" height="24" fill="none" viewBox="0 0 24 24">
    <path fill="#fff" fill-rule="evenodd" d="M20 4H4v16h14.587l-3.334-3.333h-7.92V7.333h9.334v7.92L20 18.587zM2 2v20h20V2zm7.333 7.333h5.334v5.334H9.333z" clip-rule="evenodd"/>
</svg>
